icons/icn_capas.svg

<svg width="24" xmlns="http://www.w3.org/2000/svg" height="24" id="screenshot-e387bb83-ae60-800e-8006-366ae6e63e46" viewBox="0 0 24 24" xmlns:xlink="http://www.w3.org/1999/xlink" fill="none" version="1.1"><g id="shape-e387bb83-ae60-800e-8006-366ae6e63e46"><g class="frame-container-wrapper"><g class="frame-container-blur"><g class="frame-container-shadows"><g fill="none"><g class="fills" id="fills-e387bb83-ae60-800e-8006-366ae6e63e46"><rect rx="0" ry="0" x="0" y="0" width="24" height="24" transform="matrix(1, 0, 0, 1, 0, 0)" class="frame-background"/></g><g class="frame-children"><g id="shape-e387bb83-ae60-800e-8006-366ae6e63e58" rx="0" ry="0" style="fill: rgb(0, 0, 0);"><g id="shape-e387bb83-ae60-800e-8006-366ae6e63e59"><g class="fills" id="fills-e387bb83-ae60-800e-8006-366ae6e63e59"><path d="M11.198918342590332,1.7116855382919312L4.03851842880249,5.719986438751221C3.3700613975524902,6.094620227813721,3.3705496788024902,7.145523548126221,4.03851842880249,7.521133899688721L11.169377326965332,11.529556274414062C11.667180061340332,11.809463500976562,12.273137092590332,11.808731079101562,12.771428108215332,11.529556274414062L19.93182945251465,7.521133899688721C20.60028648376465,7.146622180938721,20.59979820251465,6.095718860626221,19.93182945251465,5.719986438751221L12.800969123840332,1.7116855382919312C12.303166389465332,1.4317783117294312,11.697209358215332,1.4325107336044312,11.198918342590332,1.7116855382919312ZM11.929875373840332,3.0182042121887207C11.973576545715332,2.9936680793762207,12.026310920715332,2.9936680793762207,12.070012092590332,3.0182042121887207L18.47015953063965,6.620621204376221L12.040471076965332,10.222915649414062C11.996769905090332,10.247573852539062,11.944035530090332,10.247573852539062,11.900334358215332,10.222915649414062L5.49286413192749,6.620621204376221Z" style="font-variant: normal; stop-opacity: 1; stroke-opacity: 1; vector-effect: none; stroke: none; word-spacing: normal; text-decoration-color: rgb(0, 0, 0); isolation: auto; baseline-shift: baseline; color: rgb(0, 0, 0); fill-rule: nonzero; text-transform: none; overflow: visible; font-variation-settings: normal; image-rendering: auto; stroke-dashoffset: 0; font-stretch: normal; text-anchor: start; font-feature-settings: normal; text-indent: 0px; font-family: sans-serif; writing-mode: lr-tb; letter-spacing: normal; color-rendering: auto; text-orientation: mixed; stroke-linejoin: miter; font-style: normal; font-weight: normal; stroke-dasharray: none; white-space: normal; stroke-miterlimit: 4; text-align: start; display: inline; shape-rendering: auto; line-height: normal; font-size: medium; text-rendering: auto; stop-color: rgb(0, 0, 0); dominant-baseline: auto; inline-size: 0px; visibility: visible; direction: ltr; text-decoration-style: solid; shape-margin: 0px; color-interpolation: srgb; clip-rule: nonzero; text-decoration-line: none; color-interpolation-filters: linearrgb; fill: rgb(0, 0, 0); fill-opacity: 1;"/></g></g><g id="shape-e387bb83-ae60-800e-8006-366ae6e63e5a"><g class="fills" id="fills-e387bb83-ae60-800e-8006-366ae6e63e5a"><path d="M17.77631187438965,10.152847290039062C17.58539390563965,10.211929321289062,17.42597007751465,10.344863891601562,17.33344078063965,10.521987915039062C17.14203453063965,10.888931274414062,17.28412437438965,11.341445922851562,17.65082359313965,11.533340454101562L18.42597007751465,11.939346313476562L12.070012092590332,15.519546508789062C12.026310920715332,15.544082641601562,11.973576545715332,15.544082641601562,11.929875373840332,15.519546508789062L5.55194616317749,11.946670532226562L6.34174108505249,11.533340454101562C6.51898717880249,11.442520141601562,6.65302038192749,11.284805297851562,6.71405553817749,11.095108032226562C6.77484655380249,10.905288696289062,6.75775671005249,10.699111938476562,6.66644811630249,10.521987915039062C6.47479772567749,10.155288696289062,6.02216100692749,10.013198852539062,5.65521764755249,10.204605102539062L4.06805944442749,11.023941040039062C3.3837332725524902,11.377822875976562,3.3663992881774902,12.441177368164062,4.03851842880249,12.817764282226562L11.199162483215332,16.833511352539062C11.697209358215332,17.112564086914062,12.303166389465332,17.105972290039062,12.800969123840332,16.825942993164062L19.93182945251465,12.817520141601562C20.60248374938965,12.440444946289062,20.59100914001465,11.381607055664062,19.90961265563965,11.023818969726562L18.35199546813965,10.204360961914062C18.17450523376465,10.110855102539062,17.96722984313965,10.092300415039062,17.77606773376465,10.152725219726562Z" style="display: inline; fill: rgb(0, 0, 0); fill-opacity: 1;"/></g></g><g id="shape-e387bb83-ae60-800e-8006-366ae6e63e5b"><g class="fills" id="fills-e387bb83-ae60-800e-8006-366ae6e63e5b"><path d="M17.77631187438965,15.652847290039062C17.58539390563965,15.711929321289062,17.42597007751465,15.844863891601562,17.33344078063965,16.021987915039062C17.14203453063965,16.388931274414062,17.28412437438965,16.841445922851562,17.65082359313965,17.033340454101562L18.42597007751465,17.439346313476562L12.070012092590332,21.019546508789062C12.026310920715332,21.044082641601562,11.973576545715332,21.044082641601562,11.929875373840332,21.019546508789062L5.55194616317749,17.446670532226562L6.34174108505249,17.033340454101562C6.51898717880249,16.942520141601562,6.65302038192749,16.784805297851562,6.71405553817749,16.595108032226562C6.77484655380249,16.405288696289062,6.75775671005249,16.199111938476562,6.66644811630249,16.021987915039062C6.47479772567749,15.655288696289062,6.02216100692749,15.513198852539062,5.65521764755249,15.704605102539062L4.06805944442749,16.523941040039062C3.3837332725524902,16.877822875976562,3.3663992881774902,17.941177368164062,4.03851842880249,18.317764282226562L11.199162483215332,22.333511352539062C11.697209358215332,22.612564086914062,12.303166389465332,22.605972290039062,12.800969123840332,22.325942993164062L19.93182945251465,18.317520141601562C20.60248374938965,17.940444946289062,20.59100914001465,16.881607055664062,19.90961265563965,16.523818969726562L18.35199546813965,15.704360961914062C18.17450523376465,15.610855102539062,17.96722984313965,15.592300415039062,17.77606773376465,15.652725219726562Z" style="display: inline; fill: rgb(0, 0, 0); fill-opacity: 1;"/></g></g></g></g></g></g></g></g></g></svg>

<svg fill="none" viewBox="0 0 24 24"><g class="frame-container-wrapper"><g class="frame-container-blur"><g class="frame-container-shadows"><g class="fills"><rect width="24" height="24" class="frame-background" rx="0" ry="0"/></g><g fill="#000" class="frame-children"><path d="M11.199 1.7117 4.0384 5.72c-.6684.3746-.668 1.4255 0 1.8011l7.1309 4.0085a1.635 1.635 0 0 0 1.602 0l7.1604-4.0085c.6685-.3745.668-1.4254 0-1.8011L12.801 1.7117a1.635 1.635 0 0 0-1.602 0Zm.7309 1.3065a.1426.1426 0 0 1 .1401 0l6.4002 3.6024-6.4297 3.6023a.142.142 0 0 1-.1402 0L5.493 6.6206Z" class="fills" color="#000" color-interpolation="srgb" color-interpolation-filters="linearrgb" font-family="sans-serif" font-weight="400" overflow="visible" style="text-decoration-color:#000;isolation:auto;text-transform:none;font-variation-settings:normal;font-feature-settings:normal;text-indent:0;text-orientation:mixed;white-space:normal;text-align:start;line-height:normal;inline-size:0;text-decoration-style:solid;shape-margin:0;text-decoration-line:none"/><path d="M17.7763 10.1528a.7498.7498 0 0 0-.4429.3692.75.75 0 0 0 .3174 1.0113l.7752.406-6.356 3.5802a.1426.1426 0 0 1-.1401 0l-6.378-3.5728.7898-.4134a.751.751 0 0 0 .3724-.4382.751.751 0 0 0-.0477-.5731.7498.7498 0 0 0-1.0112-.3174l-1.5871.8193c-.6844.354-.7017 1.4173-.0296 1.7939l7.1607 4.0157c.498.279 1.104.2725 1.6018-.0076l7.1308-4.0084c.6707-.377.6592-1.4359-.0222-1.7937l-1.5576-.8194a.7502.7502 0 0 0-.576-.0517Z" class="fills"/><path d="M17.7763 15.6528a.7498.7498 0 0 0-.4429.3692.75.75 0 0 0 .3174 1.0113l.7752.406-6.356 3.5802a.1426.1426 0 0 1-.1401 0l-6.378-3.5728.7898-.4134a.751.751 0 0 0 .3724-.4382.751.751 0 0 0-.0477-.5731.7498.7498 0 0 0-1.0112-.3174l-1.5871.8193c-.6844.354-.7017 1.4173-.0296 1.7939l7.1607 4.0157c.498.279 1.104.2725 1.6018-.0076l7.1308-4.0084c.6707-.377.6592-1.4359-.0222-1.7937l-1.5576-.8194a.7502.7502 0 0 0-.576-.0517Z" class="fills"/></g></g></g></g></svg>
